sprites/svg/maki-bakery.svg

<?xml version="1.0" encoding="UTF-8" standalone="no"?>
<!-- Created with Inkscape (http://www.inkscape.org/) -->

<svg
   xmlns:dc="http://purl.org/dc/elements/1.1/"
   xmlns:cc="http://creativecommons.org/ns#"
   xmlns:rdf="http://www.w3.org/1999/02/22-rdf-syntax-ns#"
   xmlns:svg="http://www.w3.org/2000/svg"
   xmlns="http://www.w3.org/2000/svg"
   xmlns:inkscape="http://www.inkscape.org/namespaces/inkscape"
   version="1.1"
   width="24"
   height="24"
   id="svg4460">
  <defs
     id="defs4462" />
  <metadata
     id="metadata4465">
    <rdf:RDF>
      <cc:Work
         rdf:about="">
        <dc:format>image/svg+xml</dc:format>
        <dc:type
           rdf:resource="http://purl.org/dc/dcmitype/StillImage" />
        <dc:title />
      </cc:Work>
    </rdf:RDF>
  </metadata>
  <g
     id="layer4"
     style="display:inline">
    <path
       d="M 12.5,6 C 11,6 9.736126,6.5359367 10.0625,8 L 11.5,14.5 c 0.05129,0.230055 0.189587,0.5 0.5,0.5 l 1,0 1,0 c 0.310413,0 0.44871,-0.269945 0.5,-0.5 L 15.9375,8 C 16.263874,6.5359367 15,6 13.5,6 L 13,6 z M 7,9 C 6,9 5.049306,9.598612 5.5,10.5 l 2,4 C 7.666667,14.833333 8,15 8.5,15 l 1,0 c 0,0 0.615152,0.01818 0.5,-0.5 L 9,10 C 8.888197,9.496885 8.5,9 8,9 z m 11,0 c -0.5,0 -0.888197,0.496885 -1,1 l -1,4.5 c -0.115152,0.518184 0.5,0.5 0.5,0.5 l 1,0 c 0.5,0 0.833333,-0.166667 1,-0.5 l 2,-4 C 20.950694,9.598612 20,9 19,9 z M 4.4375,12.125 C 4.244284,12.123984 4.081496,12.243372 4,12.5 l -0.957701,2.994476 c -0.11889,0.374376 -0.03751,0.56596 0.46875,0.46875 L 6,15.5 C 6.491034,15.40572 6.57236,15.233874 6.4375,15 L 5,12.5 C 4.854362,12.247434 4.630716,12.126016 4.4375,12.125 z m 17.125,0 C 21.369284,12.126016 21.145638,12.247434 21,12.5 L 19.5625,15 C 19.42764,15.233874 19.50897,15.405718 20,15.5 l 2.453795,0.474274 c 0.506263,0.09721 0.61889,-0.09437 0.5,-0.46875 L 22,12.5 c -0.0815,-0.256628 -0.244284,-0.376016 -0.4375,-0.375 z"
       inkscape:connector-curvature="0"
       id="path3901"
       style="opacity:0.3;color:#000000;fill:none;stroke:#ffffff;stroke-width:2;stroke-miterlimit:4;stroke-opacity:1;stroke-dasharray:none;marker:none;visibility:visible;display:inline;overflow:visible;enable-background:accumulate" />
    <g
       transform="translate(-5e-7,-6.5)"
       id="g3921-1"
       style="opacity:0.5;fill:none;stroke:#ffffff;stroke-width:2;stroke-miterlimit:4;stroke-opacity:1;stroke-dasharray:none;display:inline">
      <g
         id="g4256-1"
         style="fill:none;stroke:#ffffff;stroke-width:2;stroke-miterlimit:4;stroke-opacity:1;stroke-dasharray:none" />
    </g>
    <path
       d="M 12.5,6 C 11,6 9.736126,6.5359367 10.0625,8 L 11.5,14.5 c 0.05129,0.230055 0.189587,0.5 0.5,0.5 l 1,0 1,0 c 0.310413,0 0.44871,-0.269945 0.5,-0.5 L 15.9375,8 C 16.263874,6.5359367 15,6 13.5,6 L 13,6 z M 7,9 C 6,9 5.049306,9.598612 5.5,10.5 l 2,4 C 7.666667,14.833333 8,15 8.5,15 l 1,0 c 0,0 0.615152,0.01818 0.5,-0.5 L 9,10 C 8.888197,9.496885 8.5,9 8,9 z m 11,0 c -0.5,0 -0.888197,0.496885 -1,1 l -1,4.5 c -0.115152,0.518184 0.5,0.5 0.5,0.5 l 1,0 c 0.5,0 0.833333,-0.166667 1,-0.5 l 2,-4 C 20.950694,9.598612 20,9 19,9 z M 4.4375,12.125 C 4.244284,12.123984 4.081496,12.243372 4,12.5 l -0.957701,2.994476 c -0.11889,0.374376 -0.03751,0.56596 0.46875,0.46875 L 6,15.5 C 6.491034,15.40572 6.57236,15.233874 6.4375,15 L 5,12.5 C 4.854362,12.247434 4.630716,12.126016 4.4375,12.125 z m 17.125,0 C 21.369284,12.126016 21.145638,12.247434 21,12.5 L 19.5625,15 C 19.42764,15.233874 19.50897,15.405718 20,15.5 l 2.453795,0.474274 c 0.506263,0.09721 0.61889,-0.09437 0.5,-0.46875 L 22,12.5 c -0.0815,-0.256628 -0.244284,-0.376016 -0.4375,-0.375 z"
       inkscape:connector-curvature="0"
       id="path3798"
       style="color:#000000;fill:#444444;fill-opacity:1;fill-rule:nonzero;stroke:none;stroke-width:0;marker:none;visibility:visible;display:inline;overflow:visible;enable-background:accumulate" />
  </g>
  <rect
     width="24"
     height="24"
     x="0"
     y="0"
     id="canvas"
     style="fill:none;stroke:none;visibility:hidden" />
</svg>

<svg xmlns="http://www.w3.org/2000/svg" width="24" height="24"><g style="display:inline"><path d="M12.5 6c-1.5 0-2.764.536-2.438 2l1.438 6.5c.051.23.19.5.5.5h2c.31 0 .449-.27.5-.5L15.938 8C16.264 6.536 15 6 13.5 6H13zM7 9c-1 0-1.95.599-1.5 1.5l2 4c.167.333.5.5 1 .5h1s.615.018.5-.5L9 10c-.112-.503-.5-1-1-1zm11 0c-.5 0-.888.497-1 1l-1 4.5c-.115.518.5.5.5.5h1c.5 0 .833-.167 1-.5l2-4C20.95 9.599 20 9 19 9zM4.437 12.125c-.193-.001-.356.118-.437.375l-.958 2.994c-.119.375-.037.566.469.47L6 15.5c.491-.094.572-.266.438-.5L5 12.5c-.146-.253-.37-.374-.563-.375zm17.125 0c-.193.001-.416.122-.562.375L19.562 15c-.134.234-.053.406.438.5l2.454.474c.506.097.619-.094.5-.468L22 12.5c-.082-.257-.244-.376-.438-.375z" style="opacity:.3;color:#000;fill:none;stroke:#fff;stroke-width:2;stroke-miterlimit:4;stroke-opacity:1;stroke-dasharray:none;marker:none;visibility:visible;display:inline;overflow:visible;enable-background:accumulate"/><path d="M12.5 6c-1.5 0-2.764.536-2.438 2l1.438 6.5c.051.23.19.5.5.5h2c.31 0 .449-.27.5-.5L15.938 8C16.264 6.536 15 6 13.5 6H13zM7 9c-1 0-1.95.599-1.5 1.5l2 4c.167.333.5.5 1 .5h1s.615.018.5-.5L9 10c-.112-.503-.5-1-1-1zm11 0c-.5 0-.888.497-1 1l-1 4.5c-.115.518.5.5.5.5h1c.5 0 .833-.167 1-.5l2-4C20.95 9.599 20 9 19 9zM4.437 12.125c-.193-.001-.356.118-.437.375l-.958 2.994c-.119.375-.037.566.469.47L6 15.5c.491-.094.572-.266.438-.5L5 12.5c-.146-.253-.37-.374-.563-.375zm17.125 0c-.193.001-.416.122-.562.375L19.562 15c-.134.234-.053.406.438.5l2.454.474c.506.097.619-.094.5-.468L22 12.5c-.082-.257-.244-.376-.438-.375z" style="color:#000;fill:#444;fill-opacity:1;fill-rule:nonzero;stroke:none;stroke-width:0;marker:none;visibility:visible;display:inline;overflow:visible;enable-background:accumulate"/></g></svg>
